v2/static/images/plumber.svg

<svg id="Layer_1_1_" enable-background="new 0 0 64 64" height="512" viewBox="0 0 64 64" width="512" xmlns="http://www.w3.org/2000/svg"><path d="m24.298 37h3.405c.851 0 1.689-.214 2.436-.624l.861-.472 3.841-2.105c1.368-1.14 2.159-2.829 2.159-4.609v-8.19l-5-8h-12l-5 8v8.19c0 1.781.791 3.469 2.159 4.609l3.841 2.105.862.472c.747.41 1.584.624 2.436.624z" fill="#fad3ac"/><path d="m13.5 21c-1.381 0-2.5 1.119-2.5 2.5s1.119 2.5 2.5 2.5h1.5v-5z" fill="#edc59b"/><path d="m38.5 26c1.381 0 2.5-1.119 2.5-2.5s-1.119-2.5-2.5-2.5h-1.5v5z" fill="#edc59b"/><path d="m37 21v-8h-5z" fill="#c98f3e"/><path d="m31 46.929v-6.929-4.096l-.862.472c-.747.41-1.584.624-2.436.624h-3.405c-.851 0-1.689-.214-2.436-.624l-.861-.472v4.096 6.929c2.761 2.761 7.239 2.761 10 0z" fill="#fad3ac"/><path d="m37 13v-5c0-2.761-2.239-5-5-5h-19v5c0 2.761 2.239 5 5 5h2 12z" fill="#91672c"/><path d="m20 13h-2c-1.131 0-2.162-.39-3-1.023v9.023l5.091-8z" fill="#c98f3e"/><path d="m32 3h-19v2h19c2.761 0 5 2.239 5 5v-2c0-2.761-2.239-5-5-5z" fill="#a67632"/><path d="m30.462 42.486c.185-.151.365-.313.538-.486v-2-4.096l-.862.472c-.747.41-1.584.624-2.436.624h-3.405c-.851 0-1.689-.214-2.436-.624l-.861-.472v2.331c3.481.54 6.75 2.01 9.462 4.251z" fill="#edc59b"/><path d="m26 46.21 7 3 3-8v-.154c-2.755-1.098-5-1.846-5-1.846v2z" fill="#eaca65"/><path d="m36 53.903 4-.516v-10.612c-1.329-.622-2.719-1.208-4-1.719v.154z" fill="#1a326e"/><path d="m33 49.21-7-3-7 3-3-8v15.274l20-2.581v-12.693z" fill="#d6b95c"/><path d="m58.028 35.904-7.028-3.904-2-2 2-6s-7 2-7 8 4 7 5 10c.416 1.249.658 3.191.8 5.033.198 2.582.2 4.967.2 4.967h5s0-3 1-8 4-7 4-7z" fill="#9c9c9c"/><path d="m43 53 1-5 2.203-.367c-.071-.229-.139-.441-.203-.633-.432-1.297-3.061-2.849-6-4.225v10.612z" fill="#eaca65"/><path d="m58 7v-4h-7v4h1 5z" fill="#8a8a8a"/><path d="m19 49.21 7-3-5-5v-2s-2.245.748-5 1.846v.154z" fill="#eaca65"/><path d="m16 56.484v-15.274-.154c-1.281.51-2.671 1.096-4 1.719v14.225z" fill="#1a326e"/><path d="m47 17c5.523 0 10-4.477 10-10h-5c0 2.761-2.239 5-5 5h-1v5z" fill="#606060"/><path d="m57 26-2 5-4 1 7.028 3.904c1.935-5.945-1.028-9.904-1.028-9.904z" fill="#8a8a8a"/><path d="m46 18v-1-5-1h-4v7z" fill="#8a8a8a"/><path d="m58.778 22c5 0 0-10 0-10s-5 10 0 10z" fill="#46afda"/><path d="m51 42c-1-3-5-4-5-10 0-3.675 2.624-5.845 4.659-6.978l.341-1.022s-7 2-7 8 4 7 5 10c.416 1.249.658 3.191.8 5.033.198 2.582.2 4.967.2 4.967h2s-.002-2.385-.2-4.967c-.142-1.842-.384-3.784-.8-5.033z" fill="#b3b3b3"/><path d="m21 55.839-5 .645-4 .516v-14.225c-2.939 1.376-5.568 2.928-6 4.225-1 3-3 11-3 11v4h18z" fill="#eaca65"/><path d="m57 52h-2-5s-.002-2.385-.2-4.967l-3.597.599-2.203.368-1 5-3 .387-4 .516-15 1.935v6.162h36c1.105 0 2-.895 2-2v-6c0-1.105-.895-2-2-2z" fill="#fad3ac"/><ellipse cx="59.5" cy="20" fill="#fff" rx=".5" ry="1"/><circle cx="59.5" cy="17.5" fill="#fff" r=".5"/><path d="m57 52h-2-5s-.002-2.385-.2-4.967l-3.597.599-2.203.368-1 5-3 .387-4 .516-15 1.935v6.162h36c1.105 0 2-.895 2-2v-6c0-1.105-.895-2-2-2z" fill="#fad3ac"/><path d="m53.628 39.343-3.285-1.971c-.474-.284-.627-.899-.343-1.372.284-.473.898-.627 1.372-.343l3.285 1.971c.474.284.627.899.343 1.372-.284.474-.898.627-1.372.343z" fill="#606060"/><path d="m50 2h9v2h-9z" fill="#b3b3b3"/><path d="m50 52s-.002-2.385-.2-4.967l-1.474.246.674 4.721c0 1.105.895 2 2 2h3c1.105 0 2-.895 2-2z" fill="#edc59b"/><path d="m40 10h2v9h-2z" fill="#b3b3b3"/><path d="m42 11h1v7h-1z" fill="#606060"/><path d="m51 4h7v1h-7z" fill="#606060"/><ellipse cx="21" cy="24.5" fill="#91672c" rx="1" ry="1.5"/><ellipse cx="31" cy="24.5" fill="#91672c" rx="1" ry="1.5"/><path d="m26 34c-2.068 0-3.75-1.682-3.75-3.75h1.5c0 1.241 1.009 2.25 2.25 2.25s2.25-1.009 2.25-2.25h1.5c0 2.068-1.682 3.75-3.75 3.75z" fill="#c47c66"/><g fill="#fff"><circle cx="21.5" cy="24.5" r=".5"/><circle cx="31.5" cy="24.5" r=".5"/></g></svg>

<?xml version="1.0" encoding="UTF-8" standalone="no"?>
<!-- Created with Inkscape (http://www.inkscape.org/) -->

<svg
   xmlns:dc="http://purl.org/dc/elements/1.1/"
   xmlns:cc="http://creativecommons.org/ns#"
   xmlns:rdf="http://www.w3.org/1999/02/22-rdf-syntax-ns#"
   xmlns:svg="http://www.w3.org/2000/svg"
   xmlns="http://www.w3.org/2000/svg"
   xmlns:sodipodi="http://sodipodi.sourceforge.net/DTD/sodipodi-0.dtd"
   xmlns:inkscape="http://www.inkscape.org/namespaces/inkscape"
   width="120.65mm"
   height="124.88334mm"
   viewBox="0 0 120.65 124.88334"
   version="1.1"
   id="svg8"
   inkscape:version="0.92.4 (5da689c313, 2019-01-14)"
   sodipodi:docname="plumber.svg">
  <defs
     id="defs2" />
  <sodipodi:namedview
     id="base"
     pagecolor="#ffffff"
     bordercolor="#666666"
     borderopacity="1.0"
     inkscape:pageopacity="0.0"
     inkscape:pageshadow="2"
     inkscape:zoom="0.98994949"
     inkscape:cx="54.163973"
     inkscape:cy="173.50828"
     inkscape:document-units="mm"
     inkscape:current-layer="g939"
     showgrid="false"
     inkscape:window-width="1600"
     inkscape:window-height="821"
     inkscape:window-x="-9"
     inkscape:window-y="-9"
     inkscape:window-maximized="1" />
  <metadata
     id="metadata5">
    <rdf:RDF>
      <cc:Work
         rdf:about="">
        <dc:format>image/svg+xml</dc:format>
        <dc:type
           rdf:resource="http://purl.org/dc/dcmitype/StillImage" />
        <dc:title></dc:title>
      </cc:Work>
    </rdf:RDF>
  </metadata>
  <g
     inkscape:label="Layer 1"
     inkscape:groupmode="layer"
     id="layer1"
     transform="translate(-5.8961924,-94.25357)">
    <g
       id="g939"
       transform="matrix(2.1166667,0,0,2.1166667,-0.45380768,87.90357)">
      <path
         id="path815"
         d="m 24.298,37 h 3.405 c 0.851,0 1.689,-0.214 2.436,-0.624 L 31,35.904 34.841,33.799 C 36.209,32.659 37,30.97 37,29.19 V 21 L 32,13 H 20 l -5,8 v 8.19 c 0,1.781 0.791,3.469 2.159,4.609 L 21,35.904 21.862,36.376 C 22.609,36.786 23.446,37 24.298,37 Z"
         inkscape:connector-curvature="0"
         style="fill:#a06700;fill-opacity:1" />
      <path
         id="path817"
         d="m 13.5,21 c -1.381,0 -2.5,1.119 -2.5,2.5 0,1.381 1.119,2.5 2.5,2.5 H 15 v -5 z"
         inkscape:connector-curvature="0"
         style="fill:#a5631e;fill-opacity:1" />
      <path
         id="path819"
         d="M 38.5,26 C 39.881,26 41,24.881 41,23.5 41,22.119 39.881,21 38.5,21 H 37 v 5 z"
         inkscape:connector-curvature="0"
         style="fill:#a5631e;fill-opacity:1" />
      <path
         id="path821"
         d="M 37,21 V 13 H 32 Z"
         inkscape:connector-curvature="0"
         style="fill:#222222;fill-opacity:1" />
      <path
         id="path823"
         d="M 31,46.929 V 40 35.904 l -0.862,0.472 C 29.391,36.786 28.554,37 27.702,37 h -3.405 c -0.851,0 -1.689,-0.214 -2.436,-0.624 L 21,35.904 V 40 46.929 c 2.761,2.761 7.239,2.761 10,0 z"
         inkscape:connector-curvature="0"
         style="fill:#cb6b0c;fill-opacity:1" />
      <path
         id="path825"
         d="M 37,13 V 8 C 37,5.239 34.761,3 32,3 H 13 v 5 c 0,2.761 2.239,5 5,5 h 2 12 z"
         inkscape:connector-curvature="0"
         style="fill:#171717;fill-opacity:1" />
      <path
         id="path827"
         d="m 20,13 h -2 c -1.131,0 -2.162,-0.39 -3,-1.023 V 21 l 5.091,-8 z"
         inkscape:connector-curvature="0"
         style="fill:#1e1e1e;fill-opacity:1" />
      <path
         id="path829"
         d="M 32,3 H 13 v 2 h 19 c 2.761,0 5,2.239 5,5 V 8 C 37,5.239 34.761,3 32,3 Z"
         inkscape:connector-curvature="0"
         style="fill:#000000;fill-opacity:1" />
      <path
         id="path831"
         d="M 30.462,42.486 C 30.647,42.335 30.827,42.173 31,42 v -2 -4.096 l -0.862,0.472 C 29.391,36.786 28.554,37 27.702,37 h -3.405 c -0.851,0 -1.689,-0.214 -2.436,-0.624 L 21,35.904 v 2.331 c 3.481,0.54 6.75,2.01 9.462,4.251 z"
         inkscape:connector-curvature="0"
         style="fill:#d9862f;fill-opacity:1" />
      <path
         id="path833"
         d="m 26,46.21 7,3 3,-8 V 41.056 C 33.245,39.958 31,39.21 31,39.21 v 2 z"
         inkscape:connector-curvature="0"
         style="fill:#eaca65" />
      <path
         id="path835"
         d="m 36,53.903 4,-0.516 V 42.775 c -1.329,-0.622 -2.719,-1.208 -4,-1.719 v 0.154 z"
         inkscape:connector-curvature="0"
         style="fill:#1a326e" />
      <path
         id="path837"
         d="m 33,49.21 -7,-3 -7,3 -3,-8 V 56.484 L 36,53.903 V 41.21 Z"
         inkscape:connector-curvature="0"
         style="fill:#d6b95c" />
      <path
         id="path839"
         d="M 58.028,35.904 51,32 49,30 51,24 c 0,0 -7,2 -7,8 0,6 4,7 5,10 0.416,1.249 0.658,3.191 0.8,5.033 C 49.998,49.615 50,52 50,52 h 5 c 0,0 0,-3 1,-8 1,-5 4,-7 4,-7 z"
         inkscape:connector-curvature="0"
         style="fill:#9c9c9c" />
      <path
         id="path841"
         d="m 43,53 1,-5 2.203,-0.367 C 46.132,47.404 46.064,47.192 46,47 45.568,45.703 42.939,44.151 40,42.775 v 10.612 z"
         inkscape:connector-curvature="0"
         style="fill:#eaca65" />
      <path
         id="path845"
         d="m 19,49.21 7,-3 -5,-5 v -2 c 0,0 -2.245,0.748 -5,1.846 v 0.154 z"
         inkscape:connector-curvature="0"
         style="fill:#eaca65" />
      <path
         id="path847"
         d="M 16,56.484 V 41.21 41.056 c -1.281,0.51 -2.671,1.096 -4,1.719 V 57 Z"
         inkscape:connector-curvature="0"
         style="fill:#1a326e" />
      <path
         id="path851"
         d="m 57,26 -2,5 -4,1 7.028,3.904 C 59.963,29.959 57,26 57,26 Z"
         inkscape:connector-curvature="0"
         style="fill:#8a8a8a" />
      <path
         id="path857"
         d="m 51,42 c -1,-3 -5,-4 -5,-10 0,-3.675 2.624,-5.845 4.659,-6.978 L 51,24 c 0,0 -7,2 -7,8 0,6 4,7 5,10 0.416,1.249 0.658,3.191 0.8,5.033 C 49.998,49.615 50,52 50,52 h 2 C 52,52 51.998,49.615 51.8,47.033 51.658,45.191 51.416,43.249 51,42 Z"
         inkscape:connector-curvature="0"
         style="fill:#b3b3b3" />
      <path
         id="path859"
         d="M 21,55.839 16,56.484 12,57 V 42.775 C 9.061,44.151 6.432,45.703 6,47 5,50 3,58 3,58 v 4 h 18 z"
         inkscape:connector-curvature="0"
         style="fill:#eaca65" />
      <path
         id="path861"
         d="m 57,52 h -2 -5 c 0,0 -0.002,-2.385 -0.2,-4.967 L 46.203,47.632 44,48 l -1,5 -3,0.387 -4,0.516 -15,1.935 V 62 h 36 c 1.105,0 2,-0.895 2,-2 v -6 c 0,-1.105 -0.895,-2 -2,-2 z"
         inkscape:connector-curvature="0"
         style="fill:#fad3ac" />
      <path
         id="path867"
         d="m 57,52 h -2 -5 c 0,0 -0.002,-2.385 -0.2,-4.967 L 46.203,47.632 44,48 l -1,5 -3,0.387 -4,0.516 -15,1.935 V 62 h 36 c 1.105,0 2,-0.895 2,-2 v -6 c 0,-1.105 -0.895,-2 -2,-2 z"
         inkscape:connector-curvature="0"
         style="fill:#f18519;fill-opacity:1" />
      <path
         id="path869"
         d="M 53.628,39.343 50.343,37.372 C 49.869,37.088 49.716,36.473 50,36 c 0.284,-0.473 0.898,-0.627 1.372,-0.343 l 3.285,1.971 c 0.474,0.284 0.627,0.899 0.343,1.372 -0.284,0.474 -0.898,0.627 -1.372,0.343 z"
         inkscape:connector-curvature="0"
         style="fill:#606060" />
      <path
         id="path873"
         d="m 50,52 c 0,0 -0.002,-2.385 -0.2,-4.967 L 48.326,47.279 49,52 c 0,1.105 0.895,2 2,2 h 3 c 1.105,0 2,-0.895 2,-2 z"
         inkscape:connector-curvature="0"
         style="fill:#de974c;fill-opacity:1" />
      <ellipse
         id="ellipse881"
         ry="1.5"
         rx="1"
         cy="24.5"
         cx="21"
         style="fill:#ffffff;fill-opacity:1" />
      <ellipse
         id="ellipse883"
         ry="1.5"
         rx="1"
         cy="24.5"
         cx="31"
         style="fill:#ffffff;fill-opacity:1" />
      <path
         id="path885"
         d="m 26,34 c -2.068,0 -3.75,-1.682 -3.75,-3.75 h 1.5 c 0,1.241 1.009,2.25 2.25,2.25 1.241,0 2.25,-1.009 2.25,-2.25 h 1.5 C 29.75,32.318 28.068,34 26,34 Z"
         inkscape:connector-curvature="0"
         style="fill:#c47c66" />
      <g
         id="g891"
         style="fill:#000000;fill-opacity:1">
        <circle
           id="circle887"
           r="0.5"
           cy="24.5"
           cx="21.5"
           style="fill:#000000;fill-opacity:1" />
        <circle
           id="circle889"
           r="0.5"
           cy="24.5"
           cx="31.5"
           style="fill:#000000;fill-opacity:1" />
      </g>
    </g>
  </g>
</svg>
